!!!COM: Bach, Johann Sebastian
!!!OTA: Das wohltemperirte Clavier
!!!OPR: Das wohltemperierte Klavier
!!!OTL: Fuga 20, Vol. 2
!!!XEN: The Well-Tempered Clavier, Volume 2, Fugue 20.
!!!ONB: A minor, 3-part
!!!SCT: BWV 889b
!!!YEC: Copyright 1994, David Huron
!!!YEM: Rights to all derivative electronic formats reserved.
**kern	**kern	**kern
*staff2	*staff1	*staff1
*clefF4	*clefG2	*clefG2
*k[]	*k[]	*k[]
*M4/4	*M4/4	*M4/4
*a:	*a:	*a:
*MM72	*MM72	*MM72
=1	=1	=1
4r	1r	1r
4e	.	.
4c	.	.
4f	.	.
=2	=2	=2
4G#	1r	1r
4r	.	.
8r	.	.
8d	.	.
8B	.	.
8e	.	.
=3	=3	=3
8c	4r	1r
8A	.	.
8F#	4a	.
8d#	.	.
8E	4g	.
32e	.	.
32dn	.	.
32c	.	.
32B	.	.
8A	4cc	.
32c	.	.
32B	.	.
32A	.	.
32G	.	.
=4	=4	=4
32F#	4d#	1r
32G	.	.
[16A	.	.
32A]	.	.
32G	.	.
32F#	.	.
32E	.	.
32D#	4r	.
32E	.	.
[16F#	.	.
32F#]	.	.
32E	.	.
32D#	.	.
32C#	.	.
8.BB	8r	.
.	8a	.
32C#	.	.
32D#	.	.
8.D#T	8f#	.
.	8b	.
32C#	.	.
32D#	.	.
=5	=5	=5
8E	8g	1r
32r	8e	.
32E	.	.
32Fn	.	.
32G	.	.
8A	8c#	.
32r	8a	.
32G	.	.
32F	.	.
32E	.	.
8D	8fn	.
32r	8d	.
32D	.	.
32E	.	.
32F	.	.
8G	8B	.
32r	8g	.
32F	.	.
32E	.	.
32D	.	.
=6	=6	=6
*	*strophe	*
*	*^	*
*	*S/sic	*S/ossia	*
8.C	8e	8e	4r
.	4axx	8cxx	.
16D	.	.	.
16E	.	8Bxx	4ee
32F	.	.	.
32E	.	.	.
*	*S/fin	*S/fin	*
*	*v	*v	*
*	*S-	*
16D	8g#	.
16E	.	.
4F	8A	4cc
.	32a	.
.	32gn	.
.	32f	.
.	32e	.
4r	8d	4ff
.	32f	.
.	32e	.
.	32d	.
.	32c	.
=7	=7	=7
8r	32B	4g#
.	32c	.
.	[16d	.
8F	32d]	.
.	32c	.
.	32B	.
.	32A	.
8BB	32G#	4r
.	32A	.
.	[16B	.
8D	32B]	.
.	32A	.
.	32G#	.
.	32F#	.
8GG#	8.E	8r
8BB	.	8dd
.	32F#	.
.	32G#	.
4E	8.G#T	8b
.	.	8ee
.	32F#	.
.	32G#	.
=8	=8	=8
8AA	8A	8cc
8r	32r	8a
.	32A	.
.	32B	.
.	32c	.
8r	8d	8f#
8F#	32r	8dd
.	32c	.
.	32B	.
.	32A	.
8G	8G	8b
8r	32r	8g
.	32G	.
.	32A	.
.	32B	.
8r	8c	8e
8E	32r	8cc
.	32B-	.
.	32A	.
.	32G	.
=9	=9	=9
8F	16F	8a
.	8f	.
8G	.	8b
.	[16f	.
8A	32f]	[4cc
.	32e	.
.	32f	.
.	32g	.
8G	32a	.
.	32g	.
.	32f	.
.	32e	.
8F	[4d	32cc]
.	.	32cc
.	.	32dd
.	.	32ee
8D	.	32ff
.	.	32ee
.	.	32dd
.	.	32cc
8G	32d]	4b
.	32d	.
.	32e	.
.	32f	.
8F	32g	.
.	32f	.
.	32e	.
.	32d	.
=10	=10	=10
4E	8c	8r
.	8G	32ccc
.	.	32bb
.	.	32aa
.	.	32gg
4A	8c	8ff
.	8f	32aa
.	.	32gg
.	.	32ff
.	.	32ee
4BB	8r	32dd
.	.	32ee
.	.	[16ff
.	8a	32ff]
.	.	32ee
.	.	32dd
.	.	32cc
4r	8d	32b
.	.	32cc
.	.	[16dd
.	8f	32dd]
.	.	32cc
.	.	32b
.	.	32a
=11	=11	=11
8r	8B	8.g
8F	8d	.
.	.	32a
.	.	32b
8D	8f	8.bT
8G	8d	.
.	.	32a
.	.	32b
8.E	8g	4cc
.	8c	.
32E	.	.
32F#	.	.
8.F#T	8A	4r
.	8d	.
32E	.	.
32F#	.	.
=12	=12	=12
8G	8.B	8r
8E	.	8g
.	32B	.
.	32c#	.
4A	8.c#T	8e
.	.	8a
.	32B	.
.	32c#	.
8r	4d	8.f#
8D	.	.
.	.	32f#
.	.	32g#
8BB	4r	8.g#T
8E	.	.
.	.	32f#
.	.	32g#
=13	=13	=13
8C	4r	16a
.	.	32b
.	.	32cc
8AA	.	32dd
.	.	32ee
.	.	32ff#
.	.	32gg#
8FF#	16r	4aa
.	16cc	.
8D#	16b	.
.	[16ff#	.
8EE	16ff#]	4ggn
.	16b	.
8r	32ee	.
.	32dd	.
.	32cc	.
.	32b	.
4r	8a	4ccc
.	32cc	.
.	32b	.
.	32a	.
.	32g	.
=14	=14	=14
8r	32f#	4dd#
.	32g	.
.	[16a	.
8c	32a]	.
.	32g	.
.	32f#	.
.	32e	.
8F#	32d#	4r
.	32e	.
.	[16f#	.
8A	32f#]	.
.	32e	.
.	32d#	.
.	32c#	.
8D#	8.B	8r
8F#	.	8aa
.	32c#	.
.	32d#	.
4B	8.d#T	8ff#
.	.	8bb
.	32c#	.
.	32d#	.
=15	=15	=15
8E	8e	8gg
32r	8r	8ee
32EE	.	.
32FFn	.	.
32GG	.	.
8AA	4r	8cc#
32r	.	8aa
32GG	.	.
32FF	.	.
32EE	.	.
8DD	8r	8ffn
8r	8d	32r
.	.	32dd
.	.	32ee
.	.	32ff
4r	8B	8gg
.	8g	32r
.	.	32ff
.	.	32ee
.	.	32dd
=16	=16	=16
8r	8e	8cc
8A	8r	32r
.	.	32ee
.	.	32ff
.	.	32gg
8F	4r	32aa
.	.	32bb-
.	.	32aa
.	.	32gg
8d	.	32ff
.	.	32ee
.	.	32dd
.	.	32cc
8G#	4r	32bn
.	.	32cc
.	.	32b
.	.	32a
8E	.	32g#
.	.	32f#
.	.	32e
.	.	32d
[4A	32r	8c
.	32e	.
.	32fn	.
.	32gn	.
.	32a	8cc
.	32g	.
.	32f	.
.	32e	.
=17	=17	=17
32A]	8d	[2b
32A	.	.
32B	.	.
32c	.	.
32d	8f	.
32c	.	.
32B	.	.
32A	.	.
32G#	8B	.
32A	.	.
32G#	.	.
32F#	.	.
32E	8d	.
32D	.	.
32C	.	.
32BB	.	.
8AA	4c	16b]
.	.	16e
32A	.	[8a
32Gn	.	.
32Fn	.	.
32E	.	.
8D	4f	16a]
.	.	16A
32F	.	[8d
32E	.	.
32D	.	.
32C	.	.
=18	=18	=18
32BB	4G#	8d]
32C	.	.
[16D	.	.
32D]	.	8ff
32C	.	.
32BB	.	.
32AA	.	.
32GG#	4r	8b
32AA	.	.
[16BB	.	.
32BB]	.	8dd
32AA	.	.
32GG#	.	.
32FF#	.	.
8.EE	8r	4g#
.	8d	.
32FF#	.	.
32GG#	.	.
8.GG#T	8B	[4b
.	8e	.
32FF#	.	.
32GG#	.	.
=19	=19	=19
8.AA	8c	8b]
.	8r	32ee
.	.	32dd
32BB	.	32cc
32C	.	32b
8.C#T	4r	16a
.	.	32cc#
.	.	32ee
.	.	8gg
32BB	.	.
32C#	.	.
8.D	8r	8ff
.	32a	8r
.	32g	.
32E	32f	.
32F	32e	.
8.F#T	16d	4r
.	32f#	.
.	32a	.
.	8ccn	.
32E	.	.
32F#	.	.
=20	=20	=20
8.G	8b	16r
.	.	32dd
.	.	32cc
.	8r	16b
32A	.	32cc
32B	.	32dd
8.BT	4r	8g
.	.	8ff
32A	.	.
32B	.	.
8.c	16r	8ee
.	32g	.
.	32f	.
.	16e	8r
32d	32f	.
32e	32g	.
8.eT	8c	4r
.	8b-	.
32d	.	.
32e	.	.
=21	=21	=21
8.f	16a	4r
.	32bn	.
.	32cc#	.
.	[8dd	.
32g	.	.
32a	.	.
8.aT	8dd]	4aa
.	8cc	.
32g	.	.
32a	.	.
16b-	4dd	4ff
32B-	.	.
32c	.	.
32d	.	.
32c	.	.
32B-	.	.
32A	.	.
32G	4r	4bb-
32F	.	.
32G	.	.
32A	.	.
32B-	.	.
32A	.	.
32G	.	.
32F	.	.
=22	=22	=22
32E	8r	4cc#
32F	.	.
[16G	.	.
32G]	8b-	.
32F	.	.
32E	.	.
32D	.	.
32C#	8e	4r
32D	.	.
[16E	.	.
32E]	8g	.
32D	.	.
32C#	.	.
32BB	.	.
8.AA	8c#	8r
.	8ee	8gg
32BB	.	.
32C#	.	.
8.C#T	[4a	8ee
.	.	8aa
32BB	.	.
32C#	.	.
=23	=23	=23
32D	8a]	8ff
32E	.	.
[16F	.	.
32F]	8a	8dd
32E	.	.
32D	.	.
32C	.	.
32BB	8d	4r
32C	.	.
[16D	.	.
32D]	8f	.
32C	.	.
32BB	.	.
32AA	.	.
8.GG	8B	8r
.	8dd	8ff
32AA	.	.
32BB	.	.
8.BBT	[4g	8dd
.	.	8gg
32AA	.	.
32BB	.	.
=24	=24	=24
8C	8g]	8ee
32r	8r	8cc
32c	.	.
32d	.	.
32e	.	.
8f	4r	8a
32r	.	8ff
32e	.	.
32d	.	.
32c	.	.
8B	8r	8dd
32r	8d	8b
32BB	.	.
32C	.	.
32D	.	.
8E	8B	8g#
32r	8g#	8ee
32D	.	.
32C	.	.
32BB	.	.
=25	=25	=25
16AA	4a	[4cc
32BB	.	.
32C	.	.
32D	.	.
32E	.	.
32F#	.	.
32G#	.	.
[4A	32r	8cc]
.	32b	.
.	32a	.
.	32gn	.
.	32fn	8r
.	32e	.
.	32d	.
.	32c	.
8A]	8d	32r
.	.	32b
.	.	32cc
.	.	32dd
16G#	16B	32ee
.	.	32ff#
16F#	16A	32gg#
.	.	32aa
8E	4G#	32bb
.	.	32aa
.	.	32gg#
.	.	32ff#
8D	.	32ee
.	.	32dd
.	.	32cc
.	.	32b
=26	=26	=26
4C	4A	32ee
.	.	32dd
.	.	32cc
.	.	32b
.	.	32a
.	.	32g#
.	.	32f#
.	.	32e
4F	4r	32a
.	.	32gn
.	.	32fn
.	.	32e
.	.	32d
.	.	32c
.	.	32B
.	.	32A
4GG#	32r	32f
.	32e	32r
.	32d	16r
.	32c	.
.	32B	8r
.	32A	.
.	32G#	.
.	32F#	.
4r	32d	4r
.	32c	.
.	32B	.
.	32A	.
.	32G#	.
.	32F#	.
.	32E	.
.	32D#	.
=27	=27	=27
8r	8E	8r
8Dn	8r	32r
.	.	32e
.	.	32f#
.	.	32g#
8BB	4r	8.g#T
8E	.	.
.	.	32f#
.	.	32g#
8C	8r	[2a
8AA	32r	.
.	32B	.
.	32c	.
.	32d	.
8EE	8.c#T	.
8GG	.	.
.	32B	.
.	32c#	.
=28	=28	=28
32FF	8d	8a]
32EE	.	.
8DD	.	.
.	8f	8b
32EE	.	.
32FF	.	.
8.EET	8G#	8e
.	8B	8g#
32DD	.	.
32EE	.	.
2AAA; 2AA;	2c; 2e;	2a;
==	==	==
*-	*-	*-
!!!CDT: 1685/3/-1750/7/28
!!!OCY: Deutschland
!!!PPP: Leipzig
!!!ODT: 1738//-1742//
!!!PDT: 1739//-1742//
!!!AFR: fuga; fugue
!!!AST: polyphony
!!!AMT: simple quadruple
!!!SCA: Bach-Werke-Verzeichnis
!!!YOR: Bach Gesellschaft
!!!SMS: British Library, various
!!!AIN: cemba; clavi
!!!EEV: 1.0
!!!RDT: 1986 December 13
!!!YER: 1994 August 10
!!!EFL: 44/48
!!!VTS: 202592673
